X:236
T:Giovinetto Cavalier. JaW.236
M:6/8
L:1/8
Q:3/8=90
S:James Winder Ms, Lancashire, 1835-41
R:.Country Dance
O:England
A:Wyresdale,Lancashire
N:Accompanied by instructions for an illegible longways Country Dance..
Z:vmp.Chris Partington, Aug 2004
K:G
d|d2B d2B|dce A2A|A2B c2B|AGA B2d|!
d2B d2B”sic” d2B|(dce) A2f|g/f/g/d/B/G/ g/f/g/d/B/G/ |\
A/e/d/c/B/A/ G2:|!
|:G|c2A c2A|FGA Ddc|B2c dBe|dcB A2B|!
c2A c2A|FGA D2f|g/f/g/d/B/G/ g/f/g/d/B/G/|A/e/d/c/B/A/ G2:|

